!!!OTL: WIE HERRLICH ISTS IM WALD
!!!ARE: Europa, Mitteleuropa, Deutschland
!!!SCT: F0974
!!!YEM: Copyright 1995, estate of Helmut Schaffrath.
**kern
*ICvox
*Ivox
*M6/8
*k[f#c#g#]
*A:
{8a
=1
4a
8e
4e
8a
=2
2cc#
8r}
{8cc#
=3
4b
8b
4b
8ee
=4
2cc#
8r}
{8a
=5
4a
8e
4e
8a
=6
2cc#
8r}
{8cc#
=7
4b
8b
4b
8ee
=8
2cc#
8r}
{8cc#
=9
8.cc#
16cc#
8cc#
8cc#
8dd
8ee
=10
4.ff#
8ee
8r}
{8ee
=11
8.cc#
16cc#
8cc#
8cc#
8dd
8ee
=12
4.ff#
8ee
8r}
{8cc#
=13
8.b
16b
8b
4b
8ee
=14
2cc#
8r}
{8cc#
=15
4b
8b
4b
8ee
=16
2a
8r}
==
!!!AGN: Natur - Lied, Wald
!!!ONB: ESAC (Essen Associative Code) Database: FINK
!!!AMT: compound duple
!!!AIN: vox
!!!EED: Helmut Schaffrath
!!!EEV: 1.0
*-
